!!!COM:	Bach, Johann Sebastian
!!!CDT:	1685/02/21/-1750/07/28/
!!!OTL@@DE: Ich dank' dir, lieber Herre
!!!SCT:	BWV 348
!!!PC#:	272
!!!AGN:	chorale
**kern	**kern	**kern	**kern
*ICvox	*ICvox	*ICvox	*ICvox
*Ibass	*Itenor	*Ialto	*Isoprn
*I"Bass	*I"Tenor	*I"Alto	*I"Soprano
*	*oclefC4	*oclefC3	*oclefC1
*clefF4	*clefGv2	*clefG2	*clefG2
*k[b-e-]	*k[b-e-]	*k[b-e-]	*k[b-e-]
*B-:	*B-:	*B-:	*B-:
*M4/4	*M4/4	*M4/4	*M4/4
*met(c)	*met(c)	*met(c)	*met(c)
*MM100	*MM100	*MM100	*MM100
8B-L	4d	4f	4b-
8AJ	.	.	.
=1	=1	=1	=1
4G	8dL	4g	4b-
.	8e-J	.	.
4D	4f	4a-	4b-
4E-	8e-L	4g	4b-
.	8dJ	.	.
4EnX	4c	4g	4cc
=2	=2	=2	=2
4F	4c	8g	4a-
.	.	4f	.
4C	4B-	.	4g
.	.	8enX	.
4FF;	4AnX;	4f;	4f;
4AA	4c	4f	4cc
=3	=3	=3	=3
4BB-	8B-L	4f	4dd
.	8AJ	.	.
4C	4G	4enX	4cc
4D	4F	4f	4b-
4EnX	4c	[4c	8anXL
.	.	.	8gJ
=4	=4	=4	=4
4F	4c	8c]	4a
.	.	4f	.
4C	4B-	.	4g
.	.	8enX	.
4FF;	4A;	4c;	4f;
4D	4B-	4f	4b-
=5	=5	=5	=5
4E-	8B-L	4g	4b-
.	8cJ	.	.
4BB-	4d	4f	4b-
4E-X	8e-XL	4g	4b-
.	8dJ	.	.
4EnX	4c	4g	4cc
=6	=6	=6	=6
4F	4c	8g	4a-
.	.	4f	.
4C	4B-	.	4g
.	.	8enX	.
4FF;	4AnX;	4f;	4f;
4AA	4c	4f	4cc
=7	=7	=7	=7
4BB-	8B-L	4f	4dd
.	8AJ	.	.
4C	4G	4enX	4cc
4D	4F	4f	4b-
4EnX	4c	[4c	8anXL
.	.	.	8gJ
=8	=8	=8	=8
4F	4c	8c]	4a
.	.	4f	.
4C	4B-	.	4g
.	.	8enX	.
4FF;	4A;	4c;	4f;
4D	8dL	8b-L	4ff
.	8cJ	8aJ	.
=9	=9	=9	=9
8GL	8B-L	4g	4ee-
8AJ	8cJ	.	.
4B-	8dL	8fL	4dd
.	8e-J	8gJ	.
4E-	4f	4a	4cc
4D	4f	8b-L	4b-
.	.	8a-J	.
=10	=10	=10	=10
4E-	2B-	4g	8b-L
.	.	.	8ccJ
4BB-	.	4f	4dd
4F;	4AnX;	4f;	4cc;
4D	4BnX	4f	4dd
=11	=11	=11	=11
4C	4.c	4e-	4ee-
8FL	.	8a-L	4dd
8GJ	8BnX	8gJ	.
4A-	4c	8gL	4cc
.	.	8fJ	.
4G	4d	4g	4bnX
=12	=12	=12	=12
2.C;	2.e-;	2.g;	2.cc;
4E-	4AnX	4c	4f
=13	=13	=13	=13
4D	4B-	4f	4b-
4C	4E-	8gL	4cc
.	.	8aJ	.
4BB-	8FL	4b-	4dd
.	8fJ	.	.
4C	[4e-	8aL	4ee-
.	.	8gJ	.
=14	=14	=14	=14
4D	8e-L]	4f	4ff
.	8dJ	.	.
4E-	8cL	4g	8ee-L
.	8B-J	.	8ddJ
4F;	4f;	4a;	4cc;
4G	4B-	4b-	4ee-
=15	=15	=15	=15
4F	4B-	4a-	4dd
2E-	8B-L	4g	4cc
.	8cJ	.	.
.	4AnX	4f	4ff
8DL	4B-	8fL	8b-L
8E-J	.	8gJ	8ccJ
=16	=16	=16	=16
4F	4B-	8fL	4dd
.	.	8e-J	.
4FF	4A	8e-L	4cc
.	.	8dJ	.
4BB-;	4F;	4d;	4b-;
==	==	==	==
*-	*-	*-	*-
!!!YOR1: 371 vierstimmige Choralges&auml;nge von Johann Sebastian Bach, 
!!!YOR2: 4th ed. by Alfred D&ouml;rffel (Leipzig: Breitkopf und H&auml;rtel, 
!!!YOR2: c.1875). 178 pp. Plate "V.A.10".  reprint: J.S. Bach, 371 Four-Part 
!!!YOR4: Chorales (New York: Associated Music Publishers, Inc., c.1940).
!!!SMS: B&H, 4th ed, Alfred D&ouml;rffel, c.1875, plate V.A.10
!!!EED:  Craig Stuart Sapp
!!!EEV:  2009/05/22
